X: 1
T: Jim Ward's
M: 6/8
L: 1/8
R: jig
K: Amix
ed|cAA ABA|dcd e3|Aee efg|BGB dcB|
cAA ABA|dcd eee|Aee dee|AAA Aed|
cAA ABA|dcd eee|Aee efg|BGB dcB|
cAA ABA|dcd ~e3|A2 e d2 e|~A3 Afg||
agf gfe|fed ~e3|def ~g3|zfg agf|
gfe fed|~e3 Aee|dee Afg|
agf gfe|fed ~e3|def ~g3|gfg agf|
gfe fed|~e3 A2 e|d2 e ~A3||
